static/images/user-logos/routific.svg

<svg height="216" viewBox="0 0 545 216" width="545" xmlns="http://www.w3.org/2000/svg"><g fill="none" transform="translate(60 60)"><path d="m26.9496855 55.8993711c-.8459988.5527989-1.3784282 1.4752095-1.4339622 2.4842767v23.1194969c.055534 1.0090671.5879634 1.9314778 1.4339622 2.4842767l20.018868 11.5597484c.9017949.4551685 1.9661295.4551685 2.8679245 0l20.0188679-11.5597484c.8459988-.5527989 1.3784282-1.4752096 1.4339623-2.4842767v-23.1257862c-.0555341-1.0090672-.5879635-1.9314778-1.4339623-2.4842767l-20.0188679-11.5534592c-.901795-.4551685-1.9661296-.4551685-2.8679245 0zm25.1069183-43.4905661c-.8442754.551507-1.3764735 1.4711826-1.4339623 2.4779875v23.1257861c.055534 1.0090672.5879635 1.9314778 1.4339623 2.4842767l20.0188679 11.5534592c.9015543.4561785 1.9663703.4561785 2.8679245 0l20.0251573-11.5597485c.8459988-.5527989 1.3784282-1.4752095 1.4339622-2.4842767v-23.1132075c-.055534-1.0090672-.5879634-1.9314778-1.4339622-2.4842768l-20.0251573-11.5597484c-.9015542-.45617853-1.9663702-.45617853-2.8679245 0z" fill="#2a3e54"/><path d="m77.1006289 55.8616352c-.8459988.5527989-1.3784282 1.4752096-1.4339622 2.4842767v23.1194969c.055534 1.0090672.5879634 1.9314778 1.4339622 2.4842767l20.018868 11.5597485c.9017949.4551685 1.9661295.4551685 2.8679245 0l20.0188676-11.5597485c.845999-.5527989 1.378429-1.4752095 1.433963-2.4842767v-23.1194969c-.055534-1.0090671-.587964-1.9314778-1.433963-2.4842767l-20.006289-11.5597484c-.901795-.4551685-1.9661296-.4551685-2.8679245 0zm-75.58490563-43.6352201c-.8442754.551507-1.37647349 1.4711826-1.43396226 2.4779874v23.1194969c.05553404 1.0090672.58796346 1.9314778 1.43396226 2.4842767l20.01886793 11.5534591c.9015542.4561786 1.9663703.4561786 2.8679245 0l20.0188679-11.5597484c.8459989-.5527989 1.3784283-1.4752095 1.4339623-2.4842767v-23.1132076c-.0574888-1.0068048-.5896868-1.9264804-1.4339623-2.4779874l-20.0188679-11.55974843c-.9017949-.45516853-1.9661295-.45516853-2.8679245 0z" fill="#fdc116"/><path d="m0 4.4134918c2.3784748-.40093885 5.1731827-.73584071 8.38412368-1.00470558 3.21094102-.26886487 6.64545862-.40329731 10.30355282-.40329731 4.0737895-.05697652 8.1415723.3297706 12.1302215 1.1532888 3.1787914.65072593 6.155545 2.0429042 8.6838115 4.06127464 4.0386502 3.33958475 6.0579754 8.08481385 6.0579754 14.23568745.0174459 1.9629085-.3084754 3.9139533-.9632823 5.766444-.6097432 1.7135063-1.4600932 3.3332044-2.5259403 4.8112661-1.0251824 1.4183448-2.2674402 2.6692488-3.681879 3.7075051-1.3663927 1.0087708-2.8610916 1.8342873-4.4453694 2.4551608v.3042418c2.3268234.9080564 4.2944797 2.5389391 5.6084436 4.6485321 1.5272891 2.5250985 2.6355106 5.2771202 3.2822952 8.1508509.475695 1.886771.9513899 3.7876929 1.4270849 5.7027654.475695 1.9150726.9299837 3.7310898 1.3628661 5.4480514.4376393 1.6980939.8586294 3.2145862 1.2629701 4.5494767.2881658 1.0283358.6604422 2.0316511 1.1131262 2.9999659h-15.1699123c-.8399133-1.7766549-1.481164-3.6391422-1.9122937-5.5541822-.7373272-2.7688365-1.5412517-6.1909675-2.4117735-10.2663929-.8039245-4.2074994-1.9598632-7.037656-3.4678162-8.4904697-1.5079531-1.4528137-3.6652297-2.1980882-6.47183-2.2358236h-3.8388583v26.539793h-14.727516zm14.727516 29.4265527h4.9163074c3.5439275 0 6.2863089-.9221593 8.2271443-2.766478 1.9698356-1.9121261 3.0280871-4.5637874 2.9112532-7.2947285 0-6.3772861-3.44641-9.6319661-10.33923-9.7640401-1.191062-.0138185-2.3820133.0357806-3.5677122.1485832-.7205268.0717493-1.4355804.1899222-2.1406273.3537696zm55.6211182 38.1583901c-3.202898.0358078-6.3829044-.5430154-9.3674299-1.7050549-2.7852822-1.097036-5.2980582-2.7870068-7.3636637-4.9524417-2.1475775-2.2926475-3.8008224-5.0017555-4.8571859-7.9592814-1.2154926-3.4041315-1.8102216-6.9984733-1.7559506-10.6123751-.0629236-3.7018091.5488817-7.3841588 1.8055137-10.8670722 1.0979469-3.004413 2.8045139-5.7501292 5.0129557-8.0654051 2.1427122-2.2164091 4.7356709-3.9485232 7.6043989-5.0797902 3.0662832-1.1920593 6.3323065-1.787601 9.6223259-1.7545793 3.2292495-.0462795 6.4338712.5676607 9.416993 1.8041037 2.7470519 1.1601026 5.2088845 2.9030419 7.2149744 5.1080899 2.0700097 2.3150986 3.6542373 5.0215792 4.6589334 7.9592814 1.1335971 3.3024005 1.6916104 6.7746964 1.6497438 10.2657042.1036148 4.073908-.6189315 8.1266343-2.1241337 11.9141598-1.2336784 3.0246217-3.0941306 5.7540476-5.4590238 8.0088058-2.1690817 2.0289304-4.7508608 3.5661699-7.5689966 4.5067219-2.7112221.9232703-5.5543363 1.4011331-8.4186502 1.4149834zm.4035854-10.6123751c1.2746174.0133439 2.5183719-.3918035 3.5402229-1.1532114 1.1050286-.8524525 1.9969661-1.9495509 2.6056041-3.2049373.7496099-1.5043842 1.2903482-3.10391 1.6072612-4.7543441.3780485-1.9128391.5630667-3.8587541.5522748-5.8085066-.0005053-1.7947749-.1520892-3.5863274-.4531485-5.355712-.262685-1.6439461-.7511213-3.2438138-1.4514914-4.7543441-.6027665-1.314865-1.4931829-2.4777884-2.6056041-3.4030349-1.1083794-.880938-2.4927268-1.3420268-3.9084062-1.3017847-1.4764023-.0395855-2.9230966.4190074-4.1066586 1.3017847-1.1484357.9027226-2.0637507 2.0672003-2.6693281 3.39596-.7007937 1.5103685-1.1892482 3.110296-1.4514914 4.7543441-.3010926 1.7693804-.4526766 3.5609356-.4531485 5.3557119-.0146632 1.9827096.1703603 3.9618626.5522748 5.9075555.3089927 1.642518.8652176 3.2287871 1.6497439 4.7048197.6524204 1.241802 1.5769777 2.3204159 2.7047303 3.1554129 1.1139626.7809511 2.448863 1.1850754 3.8092799 1.1532114zm70.8575704-5.9640018c0 3.0705278.032518 5.9005072.097553 8.4899385.065035 2.5894312.162587 4.9477474.292657 7.0749487h-12.458839l-.696803-6.4099036h-.292657c-.592215.8856087-1.25153 1.7229898-1.971953 2.5045319-.84962.9198222-1.809391 1.7279428-2.856892 2.4054826-1.225405.7850489-2.552888 1.3922968-3.943905 1.8041119-1.665922.4906217-3.394016.7290198-5.128471.7074948-4.79865 0-8.612485-1.6696879-11.441506-5.0090636-2.82902-3.3393758-4.2319171-8.6668122-4.2086903-15.9823092l-.0002837-29.0072897h14.403203v26.8140556c0 3.542191.524925 6.2967044 1.574775 8.2635401.982204 1.9288348 2.994085 3.0862089 5.12847 2.9502536 1.553205.0823186 3.076424-.4560677 4.243531-1.4998891.974973-.8903915 1.749719-1.9834745 2.271578-3.2049518.443392-1.1228464.645329-2.3289383.592282-3.5374743v-29.7855341h14.395951zm25.612331-45.4220577v12.9151034h10.777879v10.4491128h-10.777879v18.8084029c0 2.95826.461771 5.0480825 1.385313 6.2694677s2.412814 1.8297558 4.467815 1.8251117c.770113.0093286 1.540158-.0232318 2.306437-.097525.580236-.0650167 1.247507-.1625418 2.001814-.2925752l.101541 10.9437041c-1.28703.3984306-2.610614.6783351-3.952856.835929-1.853373.2395296-3.721988.3535902-5.592022.3413377-2.204054.0313931-4.395856-.3202454-6.469628-1.0379452-1.763369-.5935788-3.373529-1.5437934-4.721668-2.7864301-1.52576-1.5263704-2.636733-3.3900869-3.234814-5.4265725-.798061-2.8273227-1.162129-5.7513939-1.080689-8.6797297v-20.7031754h-6.433364v-10.4491128h6.469628v-8.8747798zm21.617211 6.9692747c-2.121226.0880943-4.184403-.6813862-5.692581-2.1230989-1.432823-1.4144117-2.206316-3.3310336-2.142053-5.30774744-.073729-2.01844182.723086-3.97607356 2.20074-5.40682537 1.571484-1.45439636 3.693356-2.22202647 5.868639-2.12309897 2.121078-.08722692 4.183908.68212394 5.692581 2.12309897 1.446979 1.46346018 2.246785 3.41273925 2.230083 5.43513336.060981 1.98709025-.736059 3.90939185-2.20074 5.30774745-1.571954 1.4536761-3.693494 2.2211858-5.86864 2.1230989zm-7.416494 6.0437551h15.265799v48.9869702h-15.265799zm110.305707 47.957095c-1.60265.6742691-3.281839 1.1517737-5.000486 1.4219688-2.357651.4180979-4.748823.6203885-7.143552.6043367-3.464771.0548821-6.91025-.5234828-10.165273-1.7063625-2.902421-1.0776859-5.540085-2.7599581-7.736467-4.9342314-2.205097-2.2164808-3.897081-4.8856452-4.957625-7.820828-1.193534-3.3591861-1.776499-6.9030703-1.721595-10.4656898-.032826-3.5002519.567264-6.977836 1.7716-10.2666141 2.288478-6.3181129 7.20804-11.3440625 13.494169-13.7859867 3.606912-1.3967444 7.452831-2.0801889 11.322529-2.0120858 1.897436-.0042027 3.791263.1647711 5.657693.5047989 1.622431.2814255 3.213439.7195672 4.750462 1.3082113l-2.19307 10.9278296c-.98414-.3870041-1.999882-.6890993-3.03601-.9029502-1.464702-.2927235-2.956677-.4285842-4.450432-.4052611-3.843231 0-6.860191 1.3082113-9.05088 3.9246337s-3.286034 5.9722686-3.286034 10.0675385c0 4.4934212 1.190592 7.9488052 3.571776 10.366152 2.321261 2.4026562 5.553165 3.719264 8.900865 3.6260202 2.634399.0728593 5.25432-.4118169 7.686462-1.4219687zm-69.779882-49.9247973c-.069418-2.4137485.726165-4.7717871 2.240724-6.6413151 1.493817-1.8108368 4.171413-2.7162552 8.032787-2.7162552 1.066468-.0017326 2.132174.057618 3.191976.1777654v-11.68274167c-1.190825-.11376985-2.388697-.1777654-3.593615-.1777654-3.571776-.06382443-7.128561.48189499-10.520132 1.61410978-2.790798.93667058-5.368375 2.42577809-7.581824 4.3801393-1.994759 1.79816198-3.576997 4.01361529-4.636468 6.49199219-1.077755 2.542981-1.622345 5.2835205-1.599511 8.049217v2.2469546h-6.4826v10.6659236h6.4826v38.546648h14.564711v-38.546648h13.387978v38.546648h14.564711v-49.2125716h-28.051337z" fill="#2a3e54" transform="translate(132 12)"/></g></svg>

<svg xmlns="http://www.w3.org/2000/svg" width="545" height="216" viewBox="0 0 545 216">
  <g fill="none" transform="translate(60 60)">
    <path fill="#2A3E54" d="M26.9496855 55.8993711C26.1036867 56.45217 25.5712573 57.3745806 25.5157233 58.3836478L25.5157233 81.5031447C25.5712573 82.5122118 26.1036867 83.4346225 26.9496855 83.9874214L46.9685535 95.5471698C47.8703484 96.0023383 48.934683 96.0023383 49.836478 95.5471698L69.8553459 83.9874214C70.7013447 83.4346225 71.2337741 82.5122118 71.2893082 81.5031447L71.2893082 58.3773585C71.2337741 57.3682913 70.7013447 56.4458807 69.8553459 55.8930818L49.836478 44.3396226C48.934683 43.8844541 47.8703484 43.8844541 46.9685535 44.3396226L26.9496855 55.8993711zM52.0566038 12.408805C51.2123284 12.960312 50.6801303 13.8799876 50.6226415 14.8867925L50.6226415 38.0125786C50.6781755 39.0216458 51.210605 39.9440564 52.0566038 40.4968553L72.0754717 52.0503145C72.977026 52.506493 74.041842 52.506493 74.9433962 52.0503145L94.9685535 40.490566C95.8145523 39.9377671 96.3469817 39.0153565 96.4025157 38.0062893L96.4025157 14.8930818C96.3469817 13.8840146 95.8145523 12.961604 94.9685535 12.408805L74.9433962.849056604C74.041842.392878073 72.977026.392878073 72.0754717.849056604L52.0566038 12.408805z"/>
    <path fill="#FDC116" d="M77.1006289 55.8616352C76.2546301 56.4144341 75.7222007 57.3368448 75.6666667 58.3459119L75.6666667 81.4654088C75.7222007 82.474476 76.2546301 83.3968866 77.1006289 83.9496855L97.1194969 95.509434C98.0212918 95.9646025 99.0856264 95.9646025 99.9874214 95.509434L120.006289 83.9496855C120.852288 83.3968866 121.384718 82.474476 121.440252 81.4654088L121.440252 58.3459119C121.384718 57.3368448 120.852288 56.4144341 120.006289 55.8616352L100 44.3018868C99.098205 43.8467183 98.0338704 43.8467183 97.1320755 44.3018868L77.1006289 55.8616352zM1.51572327 12.2264151C.671447868 12.7779221.139249782 13.6975977.0817610063 14.7044025L.0817610063 37.8238994C.137295045 38.8329666.669724468 39.7553772 1.51572327 40.3081761L21.5345912 51.8616352C22.4361454 52.3178138 23.5009615 52.3178138 24.4025157 51.8616352L44.4213836 40.3018868C45.2673825 39.7490879 45.7998119 38.8266773 45.8553459 37.8176101L45.8553459 14.7044025C45.7978571 13.6975977 45.2656591 12.7779221 44.4213836 12.2264151L24.4025157.666666667C23.5007208.211498138 22.4363862.211498138 21.5345912.666666667L1.51572327 12.2264151z"/>
    <g fill="#2A3E54" transform="translate(132 12)">
      <path d="M0 4.4134918C2.3784748 4.01255295 5.1731827 3.67765109 8.38412368 3.40878622 11.5950647 3.13992135 15.0295823 3.00548891 18.6876765 3.00548891 22.761466 2.94851239 26.8292488 3.33525951 30.817898 4.15877771 33.9966894 4.80950364 36.973443 6.20168191 39.5017095 8.22005235 43.5403597 11.5596371 45.5596849 16.3048662 45.5596849 22.4557398 45.5771308 24.4186483 45.2512095 26.3696931 44.5964026 28.2221838 43.9866594 29.9356901 43.1363094 31.5553882 42.0704623 33.0334499 41.0452799 34.4517947 39.8030221 35.7026987 38.3885833 36.740955 37.0221906 37.7497258 35.5274917 38.5752423 33.9432139 39.1961158L33.9432139 39.5003576C36.2700373 40.408414 38.2376936 42.0392967 39.5516575 44.1488897 41.0789466 46.6739882 42.1871681 49.4260099 42.8339527 52.2997406 43.3096477 54.1865116 43.7853426 56.0874335 44.2610376 58.002506 44.7367326 59.9175786 45.1910213 61.7335958 45.6239037 63.4505574 46.061543 65.1486513 46.4825331 66.6651436 46.8868738 68.0000341 47.1750396 69.0283699 47.547316 70.0316852 48 71L32.8300877 71C31.9901744 69.2233451 31.3489237 67.3608578 30.917794 65.4458178 30.1804668 62.6769813 29.3765423 59.2548503 28.5060205 55.1794249 27.702096 50.9719255 26.5461573 48.1417689 25.0382043 46.6889552 23.5302512 45.2361415 21.3729746 44.490867 18.5663743 44.4531316L14.727516 44.4531316 14.727516 70.9929246 0 70.9929246 0 4.4134918zM14.727516 33.8400445L19.6438234 33.8400445C23.1877509 33.8400445 25.9301323 32.9178852 27.8709677 31.0735665 29.8408033 29.1614404 30.8990548 26.5097791 30.7822209 23.778838 30.7822209 17.4015519 27.3358109 14.1468719 20.4429909 14.0147979 19.2519289 14.0009794 18.0609776 14.0505785 16.8752787 14.1633811 16.1547519 14.2351304 15.4396983 14.3533033 14.7346514 14.5171507L14.727516 33.8400445zM70.3486342 71.9984346C67.1457362 72.0342424 63.9657298 71.4554192 60.9812043 70.2933797 58.1959221 69.1963437 55.6831461 67.5063729 53.6175406 65.340938 51.4699631 63.0482905 49.8167182 60.3391825 48.7603547 57.3816566 47.5448621 53.9775251 46.9501331 50.3831833 47.0044041 46.7692815 46.9414805 43.0674724 47.5532858 39.3851227 48.8099178 35.9022093 49.9078647 32.8977963 51.6144317 30.1520801 53.8228735 27.8368042 55.9655857 25.6203951 58.5585444 23.888281 61.4272724 22.757014 64.4935556 21.5649547 67.7595789 20.969413 71.0495983 21.0024347 74.2788478 20.9561552 77.4834695 21.5700954 80.4665913 22.8065384 83.2136432 23.966641 85.6754758 25.7095803 87.6815657 27.9146283 89.7515754 30.2297269 91.335803 32.9362075 92.3404991 35.8739097 93.4740962 39.1763102 94.0321095 42.6486061 93.9902429 46.1396139 94.0938577 50.2135219 93.3713114 54.2662482 91.8661092 58.0537737 90.6324308 61.0783954 88.7719786 63.8078213 86.4070854 66.0625795 84.2380037 68.0915099 81.6562246 69.6287494 78.8380888 70.5693014 76.1268667 71.4925717 73.2837525 71.9704345 70.4194386 71.9842848L70.3486342 71.9984346zM70.7522196 61.3860595C72.026837 61.3994034 73.2705915 60.994256 74.2924425 60.2328481 75.3974711 59.3803956 76.2894086 58.2832972 76.8980466 57.0279108 77.6476565 55.5235266 78.1883948 53.9240008 78.5053078 52.2735667 78.8833563 50.3607276 79.0683745 48.4148126 79.0575826 46.4650601 79.0570773 44.6702852 78.9054934 42.8787327 78.6044341 41.1093481 78.3417491 39.465402 77.8533128 37.8655343 77.1529427 36.355004 76.5501762 35.040139 75.6597598 33.8772156 74.5473386 32.9519691 73.4389592 32.0710311 72.0546118 31.6099423 70.6389324 31.6501844 69.1625301 31.6105989 67.7158358 32.0691918 66.5322738 32.9519691 65.3838381 33.8546917 64.4685231 35.0191694 63.8629457 36.3479291 63.162152 37.8582976 62.6736975 39.4582251 62.4114543 41.1022732 62.1103617 42.8716536 61.9587777 44.6632088 61.9583058 46.4579851 61.9436426 48.4406947 62.1286661 50.4198477 62.5105806 52.3655406 62.8195733 54.0080586 63.3757982 55.5943277 64.1603245 57.0703603 64.8127449 58.3121623 65.7373022 59.3907762 66.8650548 60.2257732 67.9790174 61.0067243 69.3139178 61.4108486 70.6743347 61.3789846L70.7522196 61.3860595zM141.60979 55.4220577C141.60979 58.4925855 141.642308 61.3225649 141.707343 63.9119962 141.772378 66.5014274 141.86993 68.8597436 142 70.9869449L129.541161 70.9869449 128.844358 64.5770413 128.551701 64.5770413C127.959486 65.46265 127.300171 66.3000311 126.579748 67.0815732 125.730128 68.0013954 124.770357 68.809516 123.722856 69.4870558 122.497451 70.2721047 121.169968 70.8793526 119.778951 71.2911677 118.113029 71.7817894 116.384935 72.0201875 114.65048 71.9986625 109.85183 71.9986625 106.037995 70.3289746 103.208974 66.9895989 100.379954 63.6502231 98.9770569 58.3227867 99.0002837 51.0072897L99 22 113.403203 22 113.403203 48.8140556C113.403203 52.3562466 113.928128 55.11076 114.977978 57.0775957 115.960182 59.0064305 117.972063 60.1638046 120.106448 60.0278493 121.659653 60.1101679 123.182872 59.5717816 124.349979 58.5279602 125.324952 57.6375687 126.099698 56.5444857 126.621557 55.3230084 127.064949 54.200162 127.266886 52.9940701 127.213839 51.7855341L127.213839 22 141.60979 22 141.60979 55.4220577zM167.222121 10L167.222121 22.9151034 178 22.9151034 178 33.3642162 167.222121 33.3642162 167.222121 52.1726191C167.222121 55.1308791 167.683892 57.2207016 168.607434 58.4420868 169.530976 59.663472 171.020248 60.2718426 173.075249 60.2671985 173.845362 60.2765271 174.615407 60.2439667 175.381686 60.1696735 175.961922 60.1046568 176.629193 60.0071317 177.3835 59.8770983L177.485041 70.8208024C176.198011 71.219233 174.874427 71.4991375 173.532185 71.6567314 171.678812 71.896261 169.810197 72.0103216 167.940163 71.9980691 165.736109 72.0294622 163.544307 71.6778237 161.470535 70.9601239 159.707166 70.3665451 158.097006 69.4163305 156.748867 68.1736938 155.223107 66.6473234 154.112134 64.7836069 153.514053 62.7471213 152.715992 59.9197986 152.351924 56.9957274 152.433364 54.0673916L152.433364 33.3642162 146 33.3642162 146 22.9151034 152.469628 22.9151034 152.469628 14.0403236 167.222121 10zM188.839332 16.9692747C186.718106 17.057369 184.654929 16.2878885 183.146751 14.8461758 181.713928 13.4317641 180.940435 11.5151422 181.004698 9.53842836 180.930969 7.51998654 181.727784 5.5623548 183.205438 4.13160299 184.776922 2.67720663 186.898794 1.90957652 189.074077 2.00850402 191.195155 1.9212771 193.257985 2.69062796 194.766658 4.13160299 196.213637 5.59506317 197.013443 7.54434224 196.996741 9.56673635 197.057722 11.5538266 196.260682 13.4761282 194.796001 14.8744838 193.224047 16.3281599 191.102507 17.0956696 188.927361 16.9975827L188.839332 16.9692747zM181.422838 23.0130298L196.688637 23.0130298 196.688637 72 181.422838 72 181.422838 23.0130298zM291.728545 70.9701248C290.125895 71.6443939 288.446706 72.1218985 286.728059 72.3920936 284.370408 72.8101915 281.979236 73.0124821 279.584507 72.9964303 276.119736 73.0513124 272.674257 72.4729475 269.419234 71.2900678 266.516813 70.2123819 263.879149 68.5301097 261.682767 66.3558364 259.47767 64.1393556 257.785686 61.4701912 256.725142 58.5350084 255.531608 55.1758223 254.948643 51.6319381 255.003547 48.0693186 254.970721 44.5690667 255.570811 41.0914826 256.775147 37.8027045 259.063625 31.4845916 263.983187 26.458642 270.269316 24.0167178 273.876228 22.6199734 277.722147 21.9365289 281.591845 22.004632 283.489281 22.0004293 285.383108 22.1694031 287.249538 22.5094309 288.871969 22.7908564 290.462977 23.2289981 292 23.8176422L289.80693 34.7454718C288.82279 34.3584677 287.807048 34.0563725 286.77092 33.8425216 285.306218 33.5497981 283.814243 33.4139374 282.320488 33.4372605 278.477257 33.4372605 275.460297 34.7454718 273.269608 37.3618942 271.078919 39.9783166 269.983574 43.3341628 269.983574 47.4294327 269.983574 51.9228539 271.174166 55.3782379 273.55535 57.7955847 275.876611 60.1982409 279.108515 61.5148487 282.456215 61.4216049 285.090614 61.4944642 287.710535 61.009788 290.142677 59.9996362L291.728545 70.9701248zM221.948663 21.0453275C221.879245 18.631579 222.674828 16.2735404 224.189387 14.4040124 225.683204 12.5931756 228.3608 11.6877572 232.222174 11.6877572 233.288642 11.6860246 234.354348 11.7453752 235.41415 11.8655226L235.41415.182780928C234.223325.0690110764 233.025453.00501553469 231.820535.00501553469 228.248759-.0588089049 224.691974.486910516 221.300403 1.61912531 218.509605 2.55579589 215.932028 4.0449034 213.718579 5.99926461 211.72382 7.79742659 210.141582 10.0128799 209.082111 12.4912568 208.004356 15.0342378 207.459766 17.7747773 207.4826 20.5404738L207.4826 22.7874284 201 22.7874284 201 33.453352 207.4826 33.453352 207.4826 72 222.047311 72 222.047311 33.453352 235.435289 33.453352 235.435289 72 250 72 250 22.7874284 221.948663 22.7874284 221.948663 21.0453275z"/>
    </g>
  </g>
</svg>
